!!!OTL: Gusao dui hua
!!!ARE: Asia, China,ÿAnhui, Chaoxian
!! III, 571
!!!SCT: C1602
!!!YEM: Copyright 1995, estate of Helmut Schaffrath.
**kern
*ICvox
*Ivox
*M2/4
*k[b-e-]
*B-:
{8.dd
16b-
4cc}
=1
{8.dd
16b-
4cc}
=2
{8ff
16dd
16cc
8ff
16dd
16cc
=3
16dd
16cc
8b-
4cc}
=4
{8.dd
16b-
4cc}
=5
{8.dd
16b-
4cc}
=6
{8ff
16dd
16cc
8ff
16dd
16cc
=7
16dd
16cc
8b-
4cc}
=8
{8g
16b-
16cc
8g
8g
=9
16g
16g
16g
16b-
4cc}
=10
{16dd
16cc
16b-
16b-
4cc}
=11
{16cc
16dd
8ff
16dd
16ff
16dd
16cc
=12
16b-
16cc
16dd
16ff
16cc
16dd
16cc
16b-
=13
8g
16f
16g
16b-
16cc
16b-
16g
=14
2f}
=15
{16.g
32f
16g
16b-
8.cc
16dd
=16
8g
16f
16g
16b-
16cc
16b-
16g
=17
2f}
==
!!!AGN: Xiaodiao. Caihuami
!!!AMT: simple duple
!!!AIN: vox
!!!EED: Helmut Schaffrath
!!!EEV: 1.0
*-
